flaticon/grooming/manicure-1.svg

<svg xmlns="http://www.w3.org/2000/svg" width="32" height="32" viewBox="0 0 24 24">
    <path d="M14.800781 20.800781L9.199219 20.800781C8.960938 20.800781 8.800781 20.960938 8.800781 21.199219 8.800781 21.441406 8.960938 21.601562 9.199219 21.601562L14.800781 21.601562C15.039062 21.601562 15.199219 21.441406 15.199219 21.199219 15.199219 20.960938 15.039062 20.800781 14.800781 20.800781zM14.800781 19.199219L9.199219 19.199219C8.960938 19.199219 8.800781 19.359375 8.800781 19.601562 8.800781 19.839844 8.960938 20 9.199219 20L14.800781 20C15.039062 20 15.199219 19.839844 15.199219 19.601562 15.199219 19.359375 15.039062 19.199219 14.800781 19.199219zM14.800781 19.199219"/>
    <path d="M 16.3125 8.433594 C 16.035156 5.910156 15.113281 3.167969 12.28125 0.121094 C 12.199219 0.0390625 12.121094 0 12 0 C 11.878906 0 11.800781 0.0390625 11.71875 0.121094 C 8.90625 2.933594 7.996094 5.746094 7.714844 8.417969 C 6.367188 9.304688 5.601562 10.792969 5.601562 12.359375 L 5.601562 18.800781 C 5.601562 21.679688 7.921875 24 10.800781 24 L 13.199219 24 C 16.078125 24 18.398438 21.679688 18.398438 18.800781 L 18.398438 12.359375 C 18.398438 10.765625 17.640625 9.320312 16.3125 8.433594 Z M 12 1 C 13.859375 3.078125 14.769531 4.988281 15.207031 6.800781 C 15.207031 6.800781 15.203125 6.800781 15.199219 6.800781 C 14.960938 6.800781 14.800781 7 14.800781 7.199219 C 14.800781 7.441406 14.960938 7.601562 15.199219 7.601562 C 15.261719 7.601562 15.320312 7.589844 15.371094 7.570312 C 15.480469 8.207031 15.542969 8.832031 15.578125 9.453125 C 15.523438 9.296875 15.386719 9.199219 15.199219 9.199219 C 14.960938 9.199219 14.800781 9.398438 14.800781 9.601562 C 14.800781 9.839844 14.960938 10 15.199219 10 C 15.402344 10 15.546875 9.886719 15.589844 9.703125 C 15.59375 9.824219 15.597656 9.941406 15.601562 10.0625 L 15.601562 12.039062 C 15.601562 12.398438 15.601562 12.800781 15.601562 13.160156 L 15.601562 13.519531 C 15.601562 13.738281 15.574219 13.953125 15.53125 14.15625 C 15.460938 14.058594 15.34375 14 15.199219 14 C 14.960938 14 14.800781 14.199219 14.800781 14.398438 C 14.800781 14.640625 14.960938 14.800781 15.199219 14.800781 C 15.238281 14.800781 15.277344 14.796875 15.308594 14.785156 C 15.273438 14.867188 15.230469 14.941406 15.183594 15.015625 C 15.113281 15.136719 15.03125 15.25 14.945312 15.355469 C 14.917969 15.390625 14.886719 15.425781 14.855469 15.460938 C 14.835938 15.480469 14.816406 15.503906 14.792969 15.523438 C 14.761719 15.328125 14.613281 15.199219 14.398438 15.199219 C 14.160156 15.199219 14 15.398438 14 15.601562 C 14 15.78125 14.089844 15.917969 14.238281 15.972656 C 13.796875 16.242188 13.277344 16.398438 12.71875 16.398438 L 11.28125 16.398438 C 10.722656 16.398438 10.203125 16.242188 9.761719 15.972656 C 9.910156 15.917969 10 15.78125 10 15.601562 C 10 15.359375 9.839844 15.199219 9.601562 15.199219 C 9.390625 15.199219 9.242188 15.351562 9.207031 15.527344 C 9.1875 15.503906 9.164062 15.480469 9.144531 15.460938 C 9.113281 15.425781 9.082031 15.390625 9.054688 15.355469 C 8.96875 15.25 8.886719 15.136719 8.816406 15.015625 C 8.769531 14.941406 8.726562 14.867188 8.691406 14.785156 C 8.722656 14.796875 8.761719 14.800781 8.800781 14.800781 C 9.039062 14.800781 9.199219 14.640625 9.199219 14.398438 C 9.199219 14.160156 9.039062 14 8.800781 14 C 8.65625 14 8.542969 14.070312 8.472656 14.171875 C 8.425781 13.960938 8.398438 13.746094 8.398438 13.519531 L 8.398438 13.160156 C 8.398438 12.878906 8.398438 12.558594 8.398438 12.238281 L 8.398438 10.332031 C 8.40625 10.132812 8.410156 9.933594 8.417969 9.734375 C 8.46875 9.898438 8.609375 10 8.800781 10 C 9.039062 10 9.199219 9.839844 9.199219 9.601562 C 9.199219 9.359375 9.039062 9.199219 8.800781 9.199219 C 8.625 9.199219 8.492188 9.304688 8.433594 9.441406 C 8.46875 8.824219 8.53125 8.203125 8.640625 7.574219 C 8.6875 7.589844 8.742188 7.601562 8.800781 7.601562 C 9.039062 7.601562 9.199219 7.441406 9.199219 7.199219 C 9.199219 6.960938 9.039062 6.800781 8.800781 6.800781 C 8.796875 6.800781 8.796875 6.800781 8.792969 6.800781 C 9.234375 4.890625 10.144531 2.933594 12 1 Z M 17.601562 18.800781 C 17.601562 21.238281 15.640625 23.199219 13.199219 23.199219 L 10.800781 23.199219 C 8.359375 23.199219 6.398438 21.238281 6.398438 18.800781 L 6.398438 12.359375 C 6.398438 11.28125 6.839844 10.238281 7.601562 9.519531 C 7.601562 9.519531 7.601562 10.066406 7.601562 10.328125 C 7.585938 10.976562 7.59375 11.617188 7.601562 12.238281 C 7.601562 12.558594 7.601562 12.839844 7.601562 13.160156 L 7.601562 13.519531 C 7.601562 13.902344 7.65625 14.269531 7.765625 14.617188 C 7.855469 14.90625 7.976562 15.179688 8.132812 15.429688 C 8.160156 15.480469 8.195312 15.53125 8.226562 15.582031 C 8.292969 15.679688 8.363281 15.773438 8.4375 15.863281 C 8.476562 15.910156 8.515625 15.953125 8.554688 15.996094 C 8.632812 16.085938 8.714844 16.167969 8.800781 16.246094 C 8.933594 16.367188 9.074219 16.472656 9.21875 16.574219 C 9.804688 16.96875 10.515625 17.199219 11.28125 17.199219 L 12.71875 17.199219 C 14.378906 17.199219 15.769531 16.117188 16.234375 14.617188 C 16.34375 14.269531 16.398438 13.902344 16.398438 13.519531 L 16.398438 13.160156 C 16.398438 12.800781 16.398438 12.398438 16.398438 12.039062 C 16.417969 11.261719 16.433594 10.460938 16.398438 9.640625 L 16.398438 9.519531 C 17.160156 10.28125 17.601562 11.28125 17.601562 12.359375 Z M 17.601562 18.800781"/>
    <path d="M13.601562 14C13.359375 14 13.199219 14.199219 13.199219 14.398438 13.199219 14.640625 13.359375 14.800781 13.601562 14.800781 13.839844 14.800781 14 14.640625 14 14.398438 14 14.160156 13.839844 14 13.601562 14zM9.601562 12.800781C9.359375 12.800781 9.199219 13 9.199219 13.199219 9.199219 13.441406 9.359375 13.601562 9.601562 13.601562 9.839844 13.601562 10 13.441406 10 13.199219 10 12.960938 9.839844 12.800781 9.601562 12.800781zM8.800781 12.398438C9.039062 12.398438 9.199219 12.238281 9.199219 12 9.199219 11.761719 9.039062 11.601562 8.800781 11.601562 8.558594 11.601562 8.398438 11.800781 8.398438 12 8.398438 12.238281 8.558594 12.398438 8.800781 12.398438zM10.398438 11.601562C10.160156 11.601562 10 11.800781 10 12 10 12.238281 10.160156 12.398438 10.398438 12.398438 10.640625 12.398438 10.800781 12.238281 10.800781 12 10.800781 11.761719 10.640625 11.601562 10.398438 11.601562zM12 14C11.761719 14 11.601562 14.199219 11.601562 14.398438 11.601562 14.640625 11.761719 14.800781 12 14.800781 12.238281 14.800781 12.398438 14.640625 12.398438 14.398438 12.398438 14.160156 12.238281 14 12 14zM13.601562 12.398438C13.839844 12.398438 14 12.238281 14 12 14 11.761719 13.839844 11.601562 13.601562 11.601562 13.359375 11.601562 13.199219 11.800781 13.199219 12 13.199219 12.238281 13.359375 12.398438 13.601562 12.398438zM15.199219 11.601562C14.960938 11.601562 14.800781 11.800781 14.800781 12 14.800781 12.238281 14.960938 12.398438 15.199219 12.398438 15.441406 12.398438 15.601562 12.238281 15.601562 12 15.601562 11.761719 15.441406 11.601562 15.199219 11.601562zM12 12.398438C12.238281 12.398438 12.398438 12.238281 12.398438 12 12.398438 11.761719 12.238281 11.601562 12 11.601562 11.761719 11.601562 11.601562 11.800781 11.601562 12 11.601562 12.238281 11.761719 12.398438 12 12.398438zM12.800781 15.199219C12.558594 15.199219 12.398438 15.398438 12.398438 15.601562 12.398438 15.839844 12.558594 16 12.800781 16 13.039062 16 13.199219 15.839844 13.199219 15.601562 13.199219 15.359375 13.039062 15.199219 12.800781 15.199219zM11.199219 15.199219C10.960938 15.199219 10.800781 15.398438 10.800781 15.601562 10.800781 15.839844 10.960938 16 11.199219 16 11.441406 16 11.601562 15.839844 11.601562 15.601562 11.601562 15.359375 11.441406 15.199219 11.199219 15.199219zM10.398438 14C10.160156 14 10 14.199219 10 14.398438 10 14.640625 10.160156 14.800781 10.398438 14.800781 10.640625 14.800781 10.800781 14.640625 10.800781 14.398438 10.800781 14.160156 10.640625 14 10.398438 14zM11.199219 13.601562C11.441406 13.601562 11.601562 13.441406 11.601562 13.199219 11.601562 12.960938 11.441406 12.800781 11.199219 12.800781 10.960938 12.800781 10.800781 13 10.800781 13.199219 10.800781 13.441406 10.960938 13.601562 11.199219 13.601562zM12.800781 13.601562C13.039062 13.601562 13.199219 13.441406 13.199219 13.199219 13.199219 12.960938 13.039062 12.800781 12.800781 12.800781 12.558594 12.800781 12.398438 13 12.398438 13.199219 12.398438 13.441406 12.558594 13.601562 12.800781 13.601562zM14.398438 12.800781C14.160156 12.800781 14 13 14 13.199219 14 13.441406 14.160156 13.601562 14.398438 13.601562 14.640625 13.601562 14.800781 13.441406 14.800781 13.199219 14.800781 12.960938 14.640625 12.800781 14.398438 12.800781zM9.601562 11.199219C9.839844 11.199219 10 11.039062 10 10.800781 10 10.558594 9.839844 10.398438 9.601562 10.398438 9.359375 10.398438 9.199219 10.601562 9.199219 10.800781 9.199219 11.039062 9.359375 11.199219 9.601562 11.199219zM10.398438 10C10.640625 10 10.800781 9.839844 10.800781 9.601562 10.800781 9.359375 10.640625 9.199219 10.398438 9.199219 10.160156 9.199219 10 9.398438 10 9.601562 10 9.839844 10.160156 10 10.398438 10zM13.601562 9.199219C13.359375 9.199219 13.199219 9.398438 13.199219 9.601562 13.199219 9.839844 13.359375 10 13.601562 10 13.839844 10 14 9.839844 14 9.601562 14 9.359375 13.839844 9.199219 13.601562 9.199219zM12 10C12.238281 10 12.398438 9.839844 12.398438 9.601562 12.398438 9.359375 12.238281 9.199219 12 9.199219 11.761719 9.199219 11.601562 9.398438 11.601562 9.601562 11.601562 9.839844 11.761719 10 12 10zM11.199219 10.398438C10.960938 10.398438 10.800781 10.601562 10.800781 10.800781 10.800781 11.039062 10.960938 11.199219 11.199219 11.199219 11.441406 11.199219 11.601562 11.039062 11.601562 10.800781 11.601562 10.558594 11.441406 10.398438 11.199219 10.398438zM12.800781 10.398438C12.558594 10.398438 12.398438 10.601562 12.398438 10.800781 12.398438 11.039062 12.558594 11.199219 12.800781 11.199219 13.039062 11.199219 13.199219 11.039062 13.199219 10.800781 13.199219 10.558594 13.039062 10.398438 12.800781 10.398438zM14.398438 10.398438C14.160156 10.398438 14 10.601562 14 10.800781 14 11.039062 14.160156 11.199219 14.398438 11.199219 14.640625 11.199219 14.800781 11.039062 14.800781 10.800781 14.800781 10.558594 14.640625 10.398438 14.398438 10.398438zM9.601562 8.800781C9.839844 8.800781 10 8.640625 10 8.398438 10 8.160156 9.839844 8 9.601562 8 9.359375 8 9.199219 8.199219 9.199219 8.398438 9.199219 8.640625 9.359375 8.800781 9.601562 8.800781zM10.398438 6.800781C10.160156 6.800781 10 7 10 7.199219 10 7.441406 10.160156 7.601562 10.398438 7.601562 10.640625 7.601562 10.800781 7.441406 10.800781 7.199219 10.800781 6.960938 10.640625 6.800781 10.398438 6.800781zM13.601562 6.800781C13.359375 6.800781 13.199219 7 13.199219 7.199219 13.199219 7.441406 13.359375 7.601562 13.601562 7.601562 13.839844 7.601562 14 7.441406 14 7.199219 14 6.960938 13.839844 6.800781 13.601562 6.800781zM12 7.601562C12.238281 7.601562 12.398438 7.441406 12.398438 7.199219 12.398438 6.960938 12.238281 6.800781 12 6.800781 11.761719 6.800781 11.601562 7 11.601562 7.199219 11.601562 7.441406 11.761719 7.601562 12 7.601562zM11.199219 8.800781C11.441406 8.800781 11.601562 8.640625 11.601562 8.398438 11.601562 8.160156 11.441406 8 11.199219 8 10.960938 8 10.800781 8.199219 10.800781 8.398438 10.800781 8.640625 10.960938 8.800781 11.199219 8.800781zM12.800781 8.800781C13.039062 8.800781 13.199219 8.640625 13.199219 8.398438 13.199219 8.160156 13.039062 8 12.800781 8 12.558594 8 12.398438 8.199219 12.398438 8.398438 12.398438 8.640625 12.558594 8.800781 12.800781 8.800781zM14.398438 8C14.160156 8 14 8.199219 14 8.398438 14 8.640625 14.160156 8.800781 14.398438 8.800781 14.640625 8.800781 14.800781 8.640625 14.800781 8.398438 14.800781 8.160156 14.640625 8 14.398438 8zM9.601562 6.398438C9.839844 6.398438 10 6.238281 10 6 10 5.761719 9.839844 5.601562 9.601562 5.601562 9.359375 5.601562 9.199219 5.800781 9.199219 6 9.199219 6.238281 9.359375 6.398438 9.601562 6.398438zM10.398438 5.199219C10.640625 5.199219 10.800781 5.039062 10.800781 4.800781 10.800781 4.558594 10.640625 4.398438 10.398438 4.398438 10.160156 4.398438 10 4.601562 10 4.800781 10 5.039062 10.160156 5.199219 10.398438 5.199219zM13.601562 5.199219C13.839844 5.199219 14 5.039062 14 4.800781 14 4.558594 13.839844 4.398438 13.601562 4.398438 13.359375 4.398438 13.199219 4.601562 13.199219 4.800781 13.199219 5.039062 13.359375 5.199219 13.601562 5.199219zM12 4.398438C11.761719 4.398438 11.601562 4.601562 11.601562 4.800781 11.601562 5.039062 11.761719 5.199219 12 5.199219 12.238281 5.199219 12.398438 5.039062 12.398438 4.800781 12.398438 4.558594 12.238281 4.398438 12 4.398438zM11.199219 5.601562C10.960938 5.601562 10.800781 5.800781 10.800781 6 10.800781 6.238281 10.960938 6.398438 11.199219 6.398438 11.441406 6.398438 11.601562 6.238281 11.601562 6 11.601562 5.761719 11.441406 5.601562 11.199219 5.601562zM12.800781 5.601562C12.558594 5.601562 12.398438 5.800781 12.398438 6 12.398438 6.238281 12.558594 6.398438 12.800781 6.398438 13.039062 6.398438 13.199219 6.238281 13.199219 6 13.199219 5.761719 13.039062 5.601562 12.800781 5.601562zM14.398438 6.398438C14.640625 6.398438 14.800781 6.238281 14.800781 6 14.800781 5.761719 14.640625 5.601562 14.398438 5.601562 14.160156 5.601562 14 5.800781 14 6 14 6.238281 14.160156 6.398438 14.398438 6.398438zM12 2.800781C12.238281 2.800781 12.398438 2.640625 12.398438 2.398438 12.398438 2.160156 12.238281 2 12 2 11.761719 2 11.601562 2.199219 11.601562 2.398438 11.601562 2.640625 11.761719 2.800781 12 2.800781zM11.199219 4C11.441406 4 11.601562 3.839844 11.601562 3.601562 11.601562 3.359375 11.441406 3.199219 11.199219 3.199219 10.960938 3.199219 10.800781 3.398438 10.800781 3.601562 10.800781 3.839844 10.960938 4 11.199219 4zM12.800781 4C13.039062 4 13.199219 3.839844 13.199219 3.601562 13.199219 3.359375 13.039062 3.199219 12.800781 3.199219 12.558594 3.199219 12.398438 3.398438 12.398438 3.601562 12.398438 3.839844 12.558594 4 12.800781 4zM12.800781 4"/>
</svg>

<svg xmlns="http://www.w3.org/2000/svg" width="32" height="32" viewBox="0 0 24 24">
    <path d="M14.8 20.8H9.2c-.24 0-.4.16-.4.4 0 .241.16.402.4.402h5.6c.24 0 .4-.16.4-.403 0-.238-.16-.398-.4-.398zm0 0M14.8 19.2H9.2c-.24 0-.4.16-.4.402 0 .238.16.398.4.398h5.6c.24 0 .4-.16.4-.398 0-.243-.16-.403-.4-.403zm0 0"/>
    <path d="M16.313 8.434c-.278-2.524-1.2-5.266-4.032-8.313A.361.361 0 0 0 12 0c-.121 0-.2.04-.281.121-2.813 2.813-3.723 5.625-4.004 8.297a4.701 4.701 0 0 0-2.113 3.941v6.442A5.19 5.19 0 0 0 10.8 24h2.398a5.19 5.19 0 0 0 5.2-5.2v-6.44c0-1.594-.758-3.04-2.087-3.926zM12 1c1.86 2.078 2.77 3.988 3.207 5.8h-.008a.4.4 0 0 0-.398.4c0 .241.16.402.398.402a.48.48 0 0 0 .172-.032c.11.637.172 1.262.207 1.883-.055-.156-.191-.254-.379-.254a.4.4 0 0 0-.398.403c0 .238.16.398.398.398.203 0 .348-.113.39-.297l.013.36v3.457c0 .218-.028.433-.07.636a.396.396 0 0 0-.333-.156.4.4 0 0 0-.398.398c0 .243.16.403.398.403.04 0 .078-.004.11-.016a1.636 1.636 0 0 1-.125.23c-.07.122-.153.235-.239.34-.027.036-.058.07-.09.106-.02.02-.039.043-.062.062-.031-.195-.18-.324-.395-.324a.4.4 0 0 0-.398.403c0 .18.09.316.238.37-.441.27-.96.426-1.52.426h-1.437a2.905 2.905 0 0 1-1.52-.425c.15-.055.239-.192.239-.371 0-.243-.16-.403-.398-.403a.4.4 0 0 0-.395.328c-.02-.023-.043-.047-.062-.066a2.642 2.642 0 0 1-.328-.445 1.636 1.636 0 0 1-.126-.23c.032.01.07.015.11.015.238 0 .398-.16.398-.403 0-.238-.16-.398-.398-.398a.39.39 0 0 0-.328.172 2.981 2.981 0 0 1-.075-.652v-.36-2.828c.008-.2.012-.398.02-.598.05.164.191.266.383.266.238 0 .398-.16.398-.398 0-.243-.16-.403-.398-.403a.394.394 0 0 0-.367.242c.035-.617.097-1.238.207-1.867a.509.509 0 0 0 .16.028c.238 0 .398-.16.398-.403 0-.238-.16-.398-.398-.398h-.008C9.234 4.89 10.145 2.934 12 1zm5.602 17.8a4.389 4.389 0 0 1-4.403 4.4h-2.398a4.389 4.389 0 0 1-4.403-4.4v-6.44c0-1.079.442-2.122 1.204-2.84v.808c-.016.649-.008 1.29 0 1.91v1.282a3.642 3.642 0 0 0 .53 1.91c.028.05.063.101.095.152a3.769 3.769 0 0 0 .992.992 3.682 3.682 0 0 0 2.062.625h1.438a3.668 3.668 0 0 0 3.68-3.68v-.359-1.12c.019-.778.035-1.58 0-2.4v-.12c.761.761 1.203 1.761 1.203 2.84zm0 0"/>
    <path d="M13.602 14a.4.4 0 0 0-.403.398c0 .243.16.403.403.403.238 0 .398-.16.398-.403 0-.238-.16-.398-.398-.398zm0 0M9.602 12.8a.4.4 0 0 0-.403.4c0 .241.16.402.403.402.238 0 .398-.16.398-.403 0-.238-.16-.398-.398-.398zm0 0M8.8 12.398c.24 0 .4-.16.4-.398 0-.238-.16-.398-.4-.398a.4.4 0 0 0-.402.398c0 .238.16.398.403.398zm0 0M10.398 11.602A.4.4 0 0 0 10 12c0 .238.16.398.398.398.243 0 .403-.16.403-.398 0-.238-.16-.398-.403-.398zm0 0M12 14a.4.4 0 0 0-.398.398c0 .243.16.403.398.403.238 0 .398-.16.398-.403 0-.238-.16-.398-.398-.398zm0 0M13.602 12.398c.238 0 .398-.16.398-.398 0-.238-.16-.398-.398-.398a.4.4 0 0 0-.403.398c0 .238.16.398.403.398zm0 0M15.2 11.602a.4.4 0 0 0-.4.398c0 .238.16.398.4.398.241 0 .402-.16.402-.398 0-.238-.16-.398-.403-.398zm0 0M12 12.398c.238 0 .398-.16.398-.398 0-.238-.16-.398-.398-.398a.4.4 0 0 0-.398.398c0 .238.16.398.398.398zm0 0M12.8 15.2c-.241 0-.402.198-.402.402 0 .238.16.398.403.398.238 0 .398-.16.398-.398 0-.243-.16-.403-.398-.403zm0 0M11.2 15.2a.4.4 0 0 0-.4.402c0 .238.16.398.4.398.241 0 .402-.16.402-.398 0-.243-.16-.403-.403-.403zm0 0M10.398 14a.4.4 0 0 0-.398.398c0 .243.16.403.398.403.243 0 .403-.16.403-.403 0-.238-.16-.398-.403-.398zm0 0M11.2 13.602c.241 0 .402-.16.402-.403 0-.238-.16-.398-.403-.398a.4.4 0 0 0-.398.398c0 .242.16.403.398.403zm0 0M12.8 13.602c.24 0 .4-.16.4-.403 0-.238-.16-.398-.4-.398a.4.4 0 0 0-.402.398c0 .242.16.403.403.403zm0 0M14.398 12.8a.4.4 0 0 0-.398.4c0 .241.16.402.398.402.243 0 .403-.16.403-.403 0-.238-.16-.398-.403-.398zm0 0M9.602 11.2c.238 0 .398-.16.398-.4 0-.241-.16-.402-.398-.402a.404.404 0 0 0-.403.403c0 .238.16.398.403.398zm0 0M10.398 10c.243 0 .403-.16.403-.398 0-.243-.16-.403-.403-.403a.4.4 0 0 0-.398.403c0 .238.16.398.398.398zm0 0M13.602 9.2c-.243 0-.403.198-.403.402 0 .238.16.398.403.398.238 0 .398-.16.398-.398 0-.243-.16-.403-.398-.403zm0 0M12 10c.238 0 .398-.16.398-.398 0-.243-.16-.403-.398-.403a.4.4 0 0 0-.398.403c0 .238.16.398.398.398zm0 0M11.2 10.398a.403.403 0 0 0-.4.403c0 .238.16.398.4.398.241 0 .402-.16.402-.398 0-.242-.16-.403-.403-.403zm0 0M12.8 10.398a.404.404 0 0 0-.402.403c0 .238.16.398.403.398.238 0 .398-.16.398-.398 0-.242-.16-.403-.398-.403zm0 0M14.398 10.398a.403.403 0 0 0-.398.403c0 .238.16.398.398.398.243 0 .403-.16.403-.398 0-.242-.16-.403-.403-.403zm0 0M9.602 8.8c.238 0 .398-.16.398-.402C10 8.16 9.84 8 9.602 8a.4.4 0 0 0-.403.398c0 .243.16.403.403.403zm0 0M10.398 6.8a.4.4 0 0 0-.398.4c0 .241.16.402.398.402.243 0 .403-.16.403-.403 0-.238-.16-.398-.403-.398zm0 0M13.602 6.8a.4.4 0 0 0-.403.4c0 .241.16.402.403.402.238 0 .398-.16.398-.403 0-.238-.16-.398-.398-.398zm0 0M12 7.602c.238 0 .398-.16.398-.403 0-.238-.16-.398-.398-.398a.4.4 0 0 0-.398.398c0 .242.16.403.398.403zm0 0M11.2 8.8c.241 0 .402-.16.402-.402 0-.238-.16-.398-.403-.398a.4.4 0 0 0-.398.398c0 .243.16.403.398.403zm0 0M12.8 8.8c.24 0 .4-.16.4-.402 0-.238-.16-.398-.4-.398a.4.4 0 0 0-.402.398c0 .243.16.403.403.403zm0 0M14.398 8a.4.4 0 0 0-.398.398c0 .243.16.403.398.403.243 0 .403-.16.403-.403 0-.238-.16-.398-.403-.398zm0 0M9.602 6.398c.238 0 .398-.16.398-.398 0-.238-.16-.398-.398-.398A.4.4 0 0 0 9.199 6c0 .238.16.398.403.398zm0 0M10.398 5.2c.243 0 .403-.16.403-.4 0-.241-.16-.402-.403-.402a.403.403 0 0 0-.398.403c0 .238.16.398.398.398zm0 0M13.602 5.2c.238 0 .398-.16.398-.4 0-.241-.16-.402-.398-.402a.404.404 0 0 0-.403.403c0 .238.16.398.403.398zm0 0M12 4.398a.403.403 0 0 0-.398.403c0 .238.16.398.398.398.238 0 .398-.16.398-.398 0-.242-.16-.403-.398-.403zm0 0M11.2 5.602a.4.4 0 0 0-.4.398c0 .238.16.398.4.398.241 0 .402-.16.402-.398 0-.238-.16-.398-.403-.398zm0 0M12.8 5.602a.4.4 0 0 0-.402.398c0 .238.16.398.403.398.238 0 .398-.16.398-.398 0-.238-.16-.398-.398-.398zm0 0M14.398 6.398c.243 0 .403-.16.403-.398 0-.238-.16-.398-.403-.398A.4.4 0 0 0 14 6c0 .238.16.398.398.398zm0 0M12 2.8c.238 0 .398-.16.398-.402 0-.238-.16-.398-.398-.398a.4.4 0 0 0-.398.398c0 .243.16.403.398.403zm0 0M11.2 4c.241 0 .402-.16.402-.398 0-.243-.16-.403-.403-.403a.4.4 0 0 0-.398.403c0 .238.16.398.398.398zm0 0M12.8 4c.24 0 .4-.16.4-.398 0-.243-.16-.403-.4-.403-.241 0-.402.2-.402.403 0 .238.16.398.403.398zm0 0"/>
</svg>
